src/front_assets/svg/user.svg

<svg width="18" height="22" viewBox="0 0 18 22" fill="none" xmlns="http://www.w3.org/2000/svg">
<path d="M9.27177 11.7689H9.40231C9.94222 11.7812 10.4783 11.6689 10.9739 11.4395C11.4695 11.2102 11.913 10.8693 12.2742 10.44C13.8425 8.55004 13.5814 5.30922 13.5537 5.00043C13.5811 4.21388 13.4125 3.43368 13.0653 2.73962C12.7181 2.04556 12.2048 1.46257 11.5777 1.05026C10.9074 0.650315 10.1529 0.439119 9.38532 0.43651H9.31648C8.55059 0.434347 7.79667 0.639571 7.12499 1.03305C6.4912 1.44379 5.97159 2.02816 5.61994 2.72569C5.26828 3.42322 5.09735 4.20856 5.12485 5.00043C5.09624 5.30922 4.83605 8.55004 6.40433 10.44C6.76454 10.8693 7.20725 11.2103 7.70217 11.4397C8.19708 11.669 8.73249 11.7813 9.27177 11.7689ZM6.21299 5.10941C6.21299 5.09603 6.21299 5.0836 6.21299 5.075C6.34711 1.95176 8.42057 1.61716 9.30843 1.61716H9.3576C10.4574 1.64298 12.327 2.12193 12.453 5.075C12.4508 5.08635 12.4508 5.09806 12.453 5.10941C12.453 5.14001 12.7418 8.10168 11.4472 9.66091C11.1831 9.97163 10.8583 10.2163 10.4957 10.3774C10.1331 10.5385 9.74177 10.6121 9.34955 10.593H9.30843C8.91672 10.6122 8.52588 10.5386 8.16388 10.3775C7.80187 10.2163 7.47764 9.97165 7.2144 9.66091C5.93134 8.11028 6.20853 5.13618 6.2121 5.10941H6.21299Z" fill="#222222"/>
<path d="M17.7077 17.1445V17.1349C17.7077 17.1005 17.7077 17.0651 17.7077 17.0259C17.6835 16.1655 17.6299 14.1474 15.8622 13.5021L15.8211 13.4887C14.6197 13.135 13.4786 12.5794 12.4404 11.8425C12.3814 11.7967 12.3144 11.7638 12.2434 11.746C12.1723 11.7281 12.0987 11.7255 12.0267 11.7384C11.9547 11.7512 11.8859 11.7793 11.8241 11.8209C11.7624 11.8625 11.709 11.9169 11.6671 11.9808C11.6252 12.0446 11.5956 12.1168 11.5801 12.1931C11.5646 12.2693 11.5634 12.3481 11.5766 12.4248C11.5898 12.5016 11.6172 12.5747 11.6571 12.64C11.6971 12.7053 11.7488 12.7615 11.8092 12.8052C12.9487 13.6216 14.2046 14.2351 15.5278 14.6216C16.4774 14.9829 16.5829 16.068 16.6115 17.0603C16.6094 17.0966 16.6094 17.133 16.6115 17.1693C16.6176 17.6199 16.5877 18.0702 16.5221 18.5153C14.3046 19.7406 11.8361 20.3544 9.34054 20.3012C6.84385 20.35 4.3749 19.735 2.15542 18.5115C2.08777 18.0666 2.05785 17.6161 2.06601 17.1655C2.06601 17.1311 2.06601 17.0957 2.06601 17.0565C2.09462 16.0632 2.20013 14.9791 3.14968 14.6178C4.47221 14.2291 5.72775 13.6159 6.86831 12.8014C6.98505 12.7107 7.0638 12.5747 7.08759 12.4226C7.11138 12.2704 7.0783 12.1144 6.99548 11.9881C6.91267 11.8618 6.78675 11.7754 6.64488 11.7474C6.50301 11.7195 6.35654 11.7522 6.23707 11.8387C5.20001 12.5776 4.05855 13.1335 2.85641 13.4849L2.81528 13.4983C1.04761 14.1474 0.994859 16.1636 0.969823 17.0221C0.971942 17.0584 0.971942 17.0948 0.969823 17.1311V17.1445C0.946626 17.8096 1.01655 18.4746 1.17726 19.1176C1.21807 19.2313 1.29248 19.3276 1.38917 19.392C3.81553 20.84 6.56297 21.5594 9.34054 21.4742C12.1179 21.5569 14.8647 20.8376 17.2919 19.392C17.3876 19.3264 17.4617 19.2305 17.5038 19.1176C17.659 18.4736 17.7277 17.8092 17.7077 17.1445Z" fill="#222222"/>
</svg>

<svg xmlns="http://www.w3.org/2000/svg" width="18" height="22" fill="none"><path fill="#222" d="M9.272 11.769h.13c.54.012 1.076-.1 1.572-.33.495-.229.939-.57 1.3-.999 1.569-1.89 1.307-5.13 1.28-5.44a4.7 4.7 0 0 0-.489-2.26 4.34 4.34 0 0 0-1.487-1.69A4.3 4.3 0 0 0 9.385.437h-.069a4.3 4.3 0 0 0-2.191.596A4.34 4.34 0 0 0 5.62 2.726 4.7 4.7 0 0 0 5.125 5c-.029.31-.289 3.55 1.28 5.44.36.43.802.77 1.297 1s1.03.341 1.57.329m-3.059-6.66v-.034c.134-3.123 2.208-3.458 3.095-3.458h.05c1.1.026 2.969.505 3.095 3.458a.1.1 0 0 0 0 .034c0 .031.289 2.993-1.006 4.552-.264.31-.589.555-.951.716a2.5 2.5 0 0 1-1.146.216h-.042a2.5 2.5 0 0 1-1.144-.216 2.7 2.7 0 0 1-.95-.716C5.931 8.11 6.21 5.136 6.212 5.109z"/><path fill="#222" d="M17.708 17.145v-.12c-.024-.86-.078-2.878-1.846-3.523l-.04-.013a11.4 11.4 0 0 1-3.382-1.647.53.53 0 0 0-.413-.104.5.5 0 0 0-.203.083.6.6 0 0 0-.157.16.6.6 0 0 0-.09.444q.02.117.08.215.061.098.152.165c1.14.817 2.396 1.43 3.719 1.817.95.36 1.055 1.446 1.083 2.438a8.449 8.449 0 0 1-.09 1.455 14.2 14.2 0 0 1-7.18 1.786 14.3 14.3 0 0 1-7.186-1.79 8 8 0 0 1-.089-1.345v-.11c.029-.993.134-2.077 1.084-2.438A12.4 12.4 0 0 0 6.868 12.8a.6.6 0 0 0 .22-.378.62.62 0 0 0-.093-.435.55.55 0 0 0-.35-.24.52.52 0 0 0-.408.09 11.3 11.3 0 0 1-3.38 1.647l-.042.013c-1.767.65-1.82 2.666-1.845 3.524a1 1 0 0 1 0 .11v.012c-.023.666.047 1.33.207 1.974.041.113.115.21.212.274a14.6 14.6 0 0 0 7.952 2.082 14.66 14.66 0 0 0 7.95-2.082.57.57 0 0 0 .213-.274 7.5 7.5 0 0 0 .204-1.973"/></svg>
